X:5810
T:Soldiers joy (Shetland)
M:4/4
O:Shetland
R:Reel
Z:Richard Robinson 
%%TUNEURL: http://www.leeds.ac.uk/music/Info/RRTuneBk/gettune/00000a94.html
%%ID:00000a94
K:D
dB|\
AGFE DEFG| A2d(d d2)dB|AGFE DEFD|G2E(E E2)dB|\
AGFE DEFG|A2d2 d3e|
fdfa gfec|A2dd d2::A2|\
defg a2f2|edef g2fe|
defg a2f2|edcB A3A|\
defg a2f2|edef g3e|fafd egec|A2d2 d2:|
